img/--7.svg

<svg fill="none" height="16" viewBox="0 0 16 16" width="16" xmlns="http://www.w3.org/2000/svg"><path d="m8.01344 15.232c-1.01334 0-1.96667-.18-2.86-.54-.88-.3734-1.64667-.8867-2.3-1.54-.65334-.6534-1.16667-1.42-1.54-2.3-.360002-.89336-.540002-1.84669-.540002-2.86003 0-1.02666.18-1.98.540002-2.86.37333-.88.88666-1.64 1.54-2.28.65333-.65333 1.42-1.16 2.3-1.52.88-.373331 1.83333-.559997 2.86-.559997 1.02666 0 1.98.186666 2.85996.559997.88.36 1.64.86667 2.28 1.52.6534.64 1.16 1.4 1.52 2.28.3734.88.56 1.83334.56 2.86 0 1.01334-.1866 1.96667-.56 2.86003-.36.88-.8666 1.6466-1.52 2.3-.64.6533-1.4 1.1666-2.28 1.54-.87996.36-1.8333.54-2.85996.54zm.3-2.92c-1.30667 0-2.34-.3934-3.1-1.18-.76-.8-1.14-1.86003-1.14-3.18003s.38-2.36 1.14-3.12 1.79333-1.14 3.1-1.14c.53333 0 1.06.09334 1.58.28.53336.17334.96666.42 1.29996.74l-.56 1.24c-.32-.29333-.6733-.50666-1.05996-.64-.38667-.14666-.76667-.22-1.14-.22-.81334 0-1.45334.25334-1.92.76-.45334.50667-.68 1.21334-.68 2.12 0 .89334.22666 1.60667.68 2.14003.46666.52 1.10666.78 1.92.78.37333 0 .75333-.0667 1.14-.2.38666-.1467.73996-.3667 1.05996-.66l.56 1.26c-.3333.3066-.7666.5533-1.29996.74-.53334.1866-1.06.28-1.58.28zm-.3 1.96c.89333 0 1.71333-.1534 2.45996-.46.76-.32 1.42-.7667 1.98-1.34.56-.5734.9934-1.24 1.3-2 .32-.76003.48-1.58669.48-2.48003 0-.89333-.16-1.72-.48-2.48-.3066-.76-.74-1.42-1.3-1.98-.56-.57333-1.22-1.01333-1.98-1.32-.74663-.32-1.56663-.48-2.45996-.48-.89334 0-1.72.16-2.48.48-.76.30667-1.42.74667-1.98 1.32-.56.56-1 1.22-1.32 1.98-.30667.76-.46 1.58667-.46 2.48 0 .89334.15333 1.72.46 2.48003.32.76.76 1.4266 1.32 2 .56.5733 1.22 1.02 1.98 1.34.76.3066 1.58666.46 2.48.46z" fill="#000"/></svg>

<svg width="16" height="16" viewBox="0 0 16 16" fill="none" xmlns="http://www.w3.org/2000/svg">
<path d="M8.01344 15.232C7.0001 15.232 6.04677 15.052 5.15344 14.692C4.27344 14.3186 3.50677 13.8053 2.85344 13.152C2.2001 12.4986 1.68677 11.732 1.31344 10.852C0.953438 9.95864 0.773438 9.00531 0.773438 7.99197C0.773438 6.96531 0.953438 6.01197 1.31344 5.13197C1.68677 4.25197 2.2001 3.49197 2.85344 2.85197C3.50677 2.19864 4.27344 1.69197 5.15344 1.33197C6.03344 0.958639 6.98677 0.771973 8.01344 0.771973C9.0401 0.771973 9.99344 0.958639 10.8734 1.33197C11.7534 1.69197 12.5134 2.19864 13.1534 2.85197C13.8068 3.49197 14.3134 4.25197 14.6734 5.13197C15.0468 6.01197 15.2334 6.96531 15.2334 7.99197C15.2334 9.00531 15.0468 9.95864 14.6734 10.852C14.3134 11.732 13.8068 12.4986 13.1534 13.152C12.5134 13.8053 11.7534 14.3186 10.8734 14.692C9.99344 15.052 9.0401 15.232 8.01344 15.232ZM8.31344 12.312C7.00677 12.312 5.97344 11.9186 5.21344 11.132C4.45344 10.332 4.07344 9.27197 4.07344 7.95197C4.07344 6.63197 4.45344 5.59197 5.21344 4.83197C5.97344 4.07197 7.00677 3.69197 8.31344 3.69197C8.84677 3.69197 9.37344 3.78531 9.89344 3.97197C10.4268 4.14531 10.8601 4.39197 11.1934 4.71197L10.6334 5.95197C10.3134 5.65864 9.9601 5.44531 9.57344 5.31197C9.18677 5.16531 8.80677 5.09197 8.43344 5.09197C7.6201 5.09197 6.9801 5.34531 6.51344 5.85197C6.0601 6.35864 5.83344 7.06531 5.83344 7.97197C5.83344 8.86531 6.0601 9.57864 6.51344 10.112C6.9801 10.632 7.6201 10.892 8.43344 10.892C8.80677 10.892 9.18677 10.8253 9.57344 10.692C9.9601 10.5453 10.3134 10.3253 10.6334 10.032L11.1934 11.292C10.8601 11.5986 10.4268 11.8453 9.89344 12.032C9.3601 12.2186 8.83344 12.312 8.31344 12.312ZM8.01344 14.272C8.90677 14.272 9.72677 14.1186 10.4734 13.812C11.2334 13.492 11.8934 13.0453 12.4534 12.472C13.0134 11.8986 13.4468 11.232 13.7534 10.472C14.0734 9.71197 14.2334 8.88531 14.2334 7.99197C14.2334 7.09864 14.0734 6.27197 13.7534 5.51197C13.4468 4.75197 13.0134 4.09197 12.4534 3.53197C11.8934 2.95864 11.2334 2.51864 10.4734 2.21197C9.72677 1.89197 8.90677 1.73197 8.01344 1.73197C7.1201 1.73197 6.29344 1.89197 5.53344 2.21197C4.77344 2.51864 4.11344 2.95864 3.55344 3.53197C2.99344 4.09197 2.55344 4.75197 2.23344 5.51197C1.92677 6.27197 1.77344 7.09864 1.77344 7.99197C1.77344 8.88531 1.92677 9.71197 2.23344 10.472C2.55344 11.232 2.99344 11.8986 3.55344 12.472C4.11344 13.0453 4.77344 13.492 5.53344 13.812C6.29344 14.1186 7.1201 14.272 8.01344 14.272Z" fill="black"/>
</svg>
